X:1
T:Donandı Her Yer
T:Donandı Her Yer
T:Anonymous
C:Anonymous
%%score { ( 1 2 5 ) | ( 3 4 6 ) }
L:1/8
Q:1/4=70
M:4/4
K:D
V:1 treble-8 nm="Guitar" snm="Guit."
V:2 treble-8 
V:5 treble-8 
V:3 tab stafflines=6 strings=E2,A2,D3,G3,B3,E4 nostems 
V:4 tab stafflines=6 strings=E2,A2,D3,G3,B3,E4 nostems 
V:6 tab stafflines=6 strings=E2,A2,D3,G3,B3,E4 nostems 
V:1
"^\n" d2 d2 cded | d2 de/f/ e/d/c/B/ [Ad]2 | fedc BA ff/e/ | e f2 e/d/ d4 | d>c B2 c>B A2 | %5
 AA/B/ AG G/F/E/D/ D2 | fedc BA ff/e/ | e f2 e/d/ d4 |] %8
V:2
 A G2 F E2 C2 | D A2 G, A,2 D2 | x F2 A G2 G2 | E2 A2 [DF]4 | B, D2 F E2 C2 | F, G,2 B, ^A,2 B,2 | %6
 x F2 A G2 G2 | E2 A2 [DF]4 |] %8
V:3
 !2!D2 !2!D2 !2!C !2!D !1!E !2!D | !2!D2 !2!D !1!E/ !1!F/ !1!E/ !2!D/ !2!C/ !2!B,/ [!3!A,!2!D]2 | %2
 !1!F !1!E !2!D !2!C !2!B, !3!A, !1!F !1!F/ !1!E/ | !1!E !1!F2 !1!E/ !2!D/ !2!D4 | %4
 !2!D3/2 !2!C/ !2!B,2 !2!C3/2 !2!B,/ !3!A,2 | %5
 !3!A, !3!A,/ !2!B,/ !3!A, !3!G, !3!G,/ !4!F,/ !4!E,/ !4!D,/ !4!D,2 | %6
 !1!F !1!E !2!D !2!C !2!B, !3!A, !1!F !1!F/ !1!E/ | !1!E !1!F2 !1!E/ !2!D/ !2!D4 |] %8
V:4
 !3!A, !3!G,2 !4!F, !4!E,2 !5!C,2 | !4!D, !3!A,2 !6!G,, !5!A,,2 !4!D,2 | %2
 x !4!F,2 !3!A, !3!G,2 !3!G,2 | !4!E,2 !3!A,2 [!5!D,!4!F,]4 | !5!B,, !4!D,2 !4!F, !4!E,2 !5!C,2 | %5
 !6!F,, !6!G,,2 !5!B,, !5!^A,,2 !5!B,,2 | x !4!F,2 !3!A, !3!G,2 !3!G,2 | %7
 !4!E,2 !3!A,2 [!5!D,!4!F,]4 |] %8
V:5
 x8 | x8 | B,4 x D3 | x8 | x8 | x8 | B,4 x D3 | x8 |] %8
V:6
 x8 | x8 | !5!B,,4 x !4!D,3 | x8 | x8 | x8 | !5!B,,4 x !4!D,3 | x8 |] %8

